icons/rss.svg

<svg width="32" height="32" viewBox="0 0 32 32" fill="none" xmlns="http://www.w3.org/2000/svg">
<path fill-rule="evenodd" clip-rule="evenodd" d="M3.36627 28.6337C0.910867 26.1783 0 22.1783 0 16C0 9.82167 0.910867 5.82167 3.36627 3.36627C5.82167 0.910867 9.82167 0 16 0C22.1783 0 26.1783 0.910867 28.6337 3.36627C31.0891 5.82167 32 9.82167 32 16C32 22.1783 31.0891 26.1783 28.6337 28.6337C26.1783 31.0891 22.1783 32 16 32C9.82167 32 5.82167 31.0891 3.36627 28.6337Z" fill="url(#paint0_linear_29_484)"/>
<path fill-rule="evenodd" clip-rule="evenodd" d="M8 6C6.0154 6 6 6.8954 6 8C6 9.1046 6.0154 10 8 10C16.3737 10 22 15.6267 22 24C22 25.1046 22.0154 26 24 26C25.9846 26 26 25.1046 26 24C26 13.402 18.5983 6 8 6ZM6 23.3333C6 21.8605 6.02053 20.6667 8.66667 20.6667C11.3128 20.6667 11.3333 21.8605 11.3333 23.3333C11.3333 24.8061 11.3128 26 8.66667 26C6.02053 26 6 24.8061 6 23.3333ZM6 14.6667C6 13.5621 6.0154 12.6667 8 12.6667C13.2282 12.6667 19.3333 15.6347 19.3333 24C19.3333 25.1046 19.3179 26 17.3333 26C15.3487 26 15.3333 25.1046 15.3333 24C15.3333 17.3815 10.2051 16.6667 8 16.6667C6.0154 16.6667 6 15.7713 6 14.6667Z" fill="white"/>
<defs>
<linearGradient id="paint0_linear_29_484" x1="0" y1="0" x2="0" y2="32" gradientUnits="userSpaceOnUse">
<stop stop-color="#FA9C39"/>
<stop offset="1" stop-color="#E26C2D"/>
</linearGradient>
</defs>
</svg>

<svg xmlns="http://www.w3.org/2000/svg" width="32" height="32" fill="none" viewBox="0 0 32 32">
  <path fill="url(#a)" fill-rule="evenodd" d="M3.366 28.634C.911 26.178 0 22.178 0 16S.91 5.822 3.366 3.366C5.822.911 9.822 0 16 0s10.178.91 12.634 3.366C31.089 5.822 32 9.822 32 16s-.91 10.178-3.366 12.634C26.178 31.089 22.178 32 16 32s-10.178-.91-12.634-3.366Z" clip-rule="evenodd"/>
  <path fill="#fff" fill-rule="evenodd" d="M8 6c-1.985 0-2 .895-2 2s.015 2 2 2c8.374 0 14 5.627 14 14 0 1.105.015 2 2 2s2-.895 2-2C26 13.402 18.598 6 8 6ZM6 23.333c0-1.473.02-2.666 2.667-2.666 2.646 0 2.666 1.193 2.666 2.666 0 1.473-.02 2.667-2.666 2.667S6 24.806 6 23.333Zm0-8.666c0-1.105.015-2 2-2 5.228 0 11.333 2.968 11.333 11.333 0 1.105-.015 2-2 2-1.984 0-2-.895-2-2 0-6.619-5.128-7.333-7.333-7.333-1.985 0-2-.896-2-2Z" clip-rule="evenodd"/>
  <defs>
    <linearGradient id="a" x1="0" x2="0" y1="0" y2="32" gradientUnits="userSpaceOnUse">
      <stop stop-color="#FA9C39"/>
      <stop offset="1" stop-color="#E26C2D"/>
    </linearGradient>
  </defs>
</svg>
